!!!OTL: THRAENEN HAB ICH VIELE
!!!ARE: Europa, Mitteleuropa, Deutschland
!!!SCT: B0496
!!!YEM: Copyright 1995, estate of Helmut Schaffrath.
**kern
*ICvox
*Ivox
*M4/4
*k[f#c#]
*D:
{8D
8F#
=1
4A
4A
4A
8B
8A
=2
8A
8G
8G
8F#
8G
8G}
{8A
8G
=3
4F#
4F#
4A
8G
8F#
=4
2G
4r}
{8D
8F#
=5
4A
4A
4A
8B
8A
=6
8A
8G
8G
8F#
8G
8G}
{8A
8G
=7
4F#
4F#
4A
8G
8F#
=8
2G
4r}
{8D
8D
=9
8B
8B
8B
8B
4B
8d
8B
=10
8B
8A
8A
8A
4d}
{8d
8d
=11
4e
4e
4c#
8B
8c#
=12
2d
4r}
{8D
8F#
=13
8A
8A
8A
8A
4A
8d
8c#
=14
8B
8B
8B
8B
4B}
{8e
8d
=15
4c#
4A
4A
8B
8c#
=16
2d
4r}
{8D
8F#
=17
8A
8A
8A
8A
4A
8d
8c#
=18
8B
8B
8B
8B
4B}
{8e
8d
=19
4c#
4A
4A
8B
8c#
=20
2d
4r}
==
!!!AGN: Abschieds - Lied
!!!ONB: ESAC (Essen Associative Code) Database: BOEHME
!!!AMT: simple quadruple
!!!AIN: vox
!!!EED: Helmut Schaffrath
!!!EEV: 1.0
*-
